!!!OTL: Jiandiao bianzi danghongjun
!!!ARE: Asia, China, Fujian Taining
!! II, 585
!!!SCT: C2007
!!!YEM: Copyright 1995, estate of Helmut Schaffrath.
**kern
*ICvox
*Ivox
*M2/4
*k[b-e-]
*B-:
{8ccc
8ccc
8ccc
8ccc
=1
8bb-
8ddd
8ccc
8ccc
=2
8bb-
8gg
8gg
8bb-
=3
8ccc
8bb-
8gg
8gg}
=4
{8ff
8gg
8gg
16gg
16ff
=5
8dd
8ff
8gg
8gg
=6
8ccc
16ccc
16bb-
8gg
8bb-
=7
8ccc
8ccc
8bb-
8gg
=8
8gg
4.gg}
==
!!!AGN: Shange
!!!AMT: simple duple
!!!AIN: vox
!!!EED: Helmut Schaffrath
!!!EEV: 1.0
*-
